(LowerLeftRail-Top Machined right side)
G21
M3 S5000
T2
G0X0.00Y0.00Z10.00
(First right hole)
G0X11.11Y39.69
G1Z-10.0F20.0
G0Z10.00
(First right upper stepper hole)
G0X39.675Y147.925
G1Z-10.0F20.0
G0Z10.00
(First right lower stepper hole)
G0X8.675Y147.925
G1Z-10.0F20.0
G0Z10.00

(First right stepper hole  - CENTER)
(Center is X24.175Y163.525. Radius is 15.5. Minus half drill bit is 3.175/2 = 13.9125)
(We arc about the Y axis, so X remains the same and I=0)
(You subtract the radius that includes half the drill bit size from the real center)
(163.525 - 13.9125 = 149.6125)
(Since we arc about the Y axis, J is the radius minus half the drill bit size)
G0X24.175Y149.6125
G1Z-0.0F10.0
G02X24.175Y149.6125I0J13.9125F10
G1Z-1.0F10.0
G02X24.175Y149.6125I0J13.9125F10
G1Z-2.0F10.0
G02X24.175Y149.6125I0J13.9125F10
G1Z-3.0F10.0
G02X24.175Y149.6125I0J13.9125F10
G1Z-4.0F10.0
G02X24.175Y149.6125I0J13.9125F10
G1Z-5.0F10.0
G02X24.175Y149.6125I0J13.9125F10
G1Z-6.0F10.0
G02X24.175Y149.6125I0J13.9125F10
G1Z-7.0F10.0
G02X24.175Y149.6125I0J13.9125F10
G1Z-8.0F10.0
G02X24.175Y149.6125I0J13.9125F10
G1Z-9.0F10.0
G02X24.175Y149.6125I0J13.9125F10
G1Z-10.0F10.0
G02X24.175Y149.6125I0J13.9125F10
G0Z10.00
(Second right upper stepper hole)
G0X39.675Y178.925
G1Z-10.0F20.0
G0Z10.00
(Second right lower stepper hole)
G0X8.675Y178.925
G1Z-10.0F20.0
G0Z10.00
S0
M5
M30
(END)
(OF PROGRAM)
